icon-themes/sifr_svg/cmd/sc_glueinsertpoint.svg

<svg viewBox="0 0 16 16" xmlns="http://www.w3.org/2000/svg"><g fill="#555753"><path d="m6 2v4h-4v4h4v4h4v-4h4v-4h-4v-4z" opacity=".35"/><path d="m11 8v3h-3v2h3v3h2v-3h3v-2h-3v-3z"/></g></svg>

<svg xmlns="http://www.w3.org/2000/svg" viewBox="0 0 16 16">
  <path
     style="opacity:0.35;fill:#555753"
     d="M 6,2 V 6 H 2 v 4 h 4 v 4 h 4 v -4 h 4 V 6 H 10 V 2 Z"
     />
  <path
     style="fill:#555753"
     d="m 11,8 v 3 H 8 v 2 h 3 v 3 h 2 v -3 h 3 V 11 H 13 V 8 Z"
     />
</svg>
